Numix-GalliumOS/22/mimetypes/unknown.svg

<?xml version="1.0" encoding="UTF-8" standalone="no"?>
<svg
   xmlns:dc="http://purl.org/dc/elements/1.1/"
   xmlns:cc="http://creativecommons.org/ns#"
   xmlns:rdf="http://www.w3.org/1999/02/22-rdf-syntax-ns#"
   xmlns:svg="http://www.w3.org/2000/svg"
   xmlns="http://www.w3.org/2000/svg"
   xmlns:sodipodi="http://sodipodi.sourceforge.net/DTD/sodipodi-0.dtd"
   xmlns:inkscape="http://www.inkscape.org/namespaces/inkscape"
   width="22"
   height="22"
   viewBox="0 0 22 22"
   id="svg2"
   version="1.1"
   inkscape:version="0.48.5 r10040"
   sodipodi:docname="unknown.svg">
  <metadata
     id="metadata16">
    <rdf:RDF>
      <cc:Work
         rdf:about="">
        <dc:format>image/svg+xml</dc:format>
        <dc:type
           rdf:resource="http://purl.org/dc/dcmitype/StillImage" />
      </cc:Work>
    </rdf:RDF>
  </metadata>
  <defs
     id="defs14" />
  <sodipodi:namedview
     pagecolor="#ffffff"
     bordercolor="#666666"
     borderopacity="1"
     objecttolerance="10"
     gridtolerance="10"
     guidetolerance="10"
     inkscape:pageopacity="0"
     inkscape:pageshadow="2"
     inkscape:window-width="1280"
     inkscape:window-height="970"
     id="namedview12"
     showgrid="true"
     inkscape:zoom="29.5"
     inkscape:cx="14.051891"
     inkscape:cy="11.713209"
     inkscape:window-x="0"
     inkscape:window-y="0"
     inkscape:window-maximized="1"
     inkscape:current-layer="svg2"
     inkscape:snap-midpoints="true">
    <inkscape:grid
       type="xygrid"
       id="grid3004"
       empspacing="5"
       visible="true"
       enabled="true"
       snapvisiblegridlinesonly="true" />
  </sodipodi:namedview>
  <path
     style="fill:#dcdcdc"
     d="M 4,0 C 3.527343,0 3,0.527344 3,1 l 0,20 c 0,0.445312 0.554687,1 1,1 l 14,0 c 0.445313,0 0.992367,-0.554753 1,-1 L 19,6 13,0 z"
     id="path4"
     inkscape:connector-curvature="0"
     sodipodi:nodetypes="ssssssccs" />
  <path
     style="fill:#000000;fill-opacity:0.19599998"
     d="m 14,6 5,5 0,-5 z"
     id="path6"
     inkscape:connector-curvature="0"
     sodipodi:nodetypes="cccc" />
  <path
     style="fill:#ffffff;fill-opacity:0.39200003"
     d="m 13,0 6,6 -5,0 C 13.554688,6 13,5.445312 13,5 z"
     id="path8"
     inkscape:connector-curvature="0"
     sodipodi:nodetypes="ccssc" />
  <path
     style="fill:#888888"
     d="m 9.7037802,15.855303 0,-0.393089 c 0,-0.567075 0.1167054,-1.031047 0.3355288,-1.391913 0.226115,-0.367314 0.649174,-0.760401 1.254582,-1.166374 0.853411,-0.554191 1.385878,-0.979497 1.604701,-1.256591 0.226116,-0.283539 0.335528,-0.61863 0.335528,-1.018162 0,-0.496192 -0.204235,-0.8763913 -0.619998,-1.1405971 C 12.212947,9.2114824 11.622126,9.076157 10.856247,9.076157 c -0.496,0 -0.9701151,0.051549 -1.4442299,0.1417692 -0.4668219,0.083774 -0.9992901,0.251318 -1.6047,0.4833044 L 7.2529663,8.7217341 C 8.4346079,8.2448749 9.6673104,8 10.95107,8 c 1.188937,0 2.115286,0.2319861 2.779048,0.6830709 0.663762,0.4575279 0.991996,1.1019316 0.991996,1.9332161 0,0.347978 -0.06564,0.663737 -0.189645,0.934387 C 14.41576,11.821325 14.240705,12.072643 14,12.317516 c -0.233411,0.23843 -0.743995,0.61863 -1.531759,1.153486 -0.634587,0.418864 -1.050349,0.766842 -1.254584,1.043937 -0.204233,0.270649 -0.299058,0.644406 -0.299058,1.101933 l 0,0.238431 -1.2108188,0 m -0.4595279,2.165201 c 0,-0.663738 0.3792932,-0.992383 1.1232907,-0.992383 0.364704,0 0.641881,0.08377 0.838821,0.257761 0.196938,0.167546 0.299059,0.412419 0.299059,0.734622 0,0.309314 -0.102126,0.547744 -0.299059,0.728178 C 11.002126,18.916227 10.724952,19 10.367543,19 10.046603,19 9.7767207,18.92267 9.5651923,18.774459 9.3536643,18.6198 9.2442523,18.368483 9.2442523,18.020504"
     id="path10"
     inkscape:connector-curvature="0" />
</svg>

<svg xmlns="http://www.w3.org/2000/svg" viewBox="0 0 22 22">
 <path d="m 4 0 c -0.473 0 -1 0.527 -1 1 l 0 20 c 0 0.445 0.555 1 1 1 l 14 0 c 0.445 0 0.992 -0.555 1 -1 l 0 -15 -6 -6 z" style="fill:#dcdcdc"/>
 <path d="m 14 6 5 5 0 -5 z" style="fill:#000;fill-opacity:0.196"/>
 <path d="m 13 0 6 6 -5 0 c -0.445 0 -1 -0.555 -1 -1 z" style="fill:#fff;fill-opacity:0.392"/>
 <path d="m 9.704 15.855 0 -0.393 c 0 -0.567 0.117 -1.031 0.336 -1.392 0.226 -0.367 0.649 -0.76 1.255 -1.166 0.853 -0.554 1.386 -0.979 1.605 -1.257 0.226 -0.284 0.336 -0.619 0.336 -1.018 0 -0.496 -0.204 -0.876 -0.62 -1.141 c -0.401 -0.277 -0.992 -0.412 -1.758 -0.412 c -0.496 0 -0.97 0.052 -1.444 0.142 -0.467 0.084 -0.999 0.251 -1.605 0.483 l -0.554 -0.979 c 1.182 -0.477 2.414 -0.722 3.698 -0.722 c 1.189 0 2.115 0.232 2.779 0.683 0.664 0.458 0.992 1.102 0.992 1.933 0 0.348 -0.066 0.664 -0.19 0.934 c -0.117 0.271 -0.292 0.522 -0.532 0.767 c -0.233 0.238 -0.744 0.619 -1.532 1.153 -0.635 0.419 -1.05 0.767 -1.255 1.044 -0.204 0.271 -0.299 0.644 -0.299 1.102 l 0 0.238 -1.211 0 m -0.46 2.165 c 0 -0.664 0.379 -0.992 1.123 -0.992 0.365 0 0.642 0.084 0.839 0.258 0.197 0.168 0.299 0.412 0.299 0.735 0 0.309 -0.102 0.548 -0.299 0.728 c -0.204 0.168 -0.481 0.251 -0.839 0.251 -0.321 0 -0.591 -0.077 -0.802 -0.226 -0.212 -0.155 -0.321 -0.406 -0.321 -0.754" style="fill:#888"/>
</svg>
